src/assets/tokens/SENECA.svg

<svg fill="none" height="354" width="354" xmlns="http://www.w3.org/2000/svg"><linearGradient id="b" gradientUnits="userSpaceOnUse" x1="51.788" x2="301.849" y1="51.788" y2="301.849"><stop offset="0" stop-color="#ae8625"/><stop offset=".33" stop-color="#f7ef8a"/><stop offset=".67" stop-color="#d2ac47"/><stop offset="1" stop-color="#edc967"/></linearGradient><clipPath id="a"><path d="M0 0h353.64v353.64H0z"/></clipPath><g clip-path="url(#a)"><path d="M176.82 353.64c-23.87 0-47.02-4.68-68.83-13.9a176.982 176.982 0 0 1-30.04-16.3 178.4 178.4 0 0 1-26.16-21.58c-8-8-15.26-16.8-21.58-26.16a176.282 176.282 0 0 1-16.3-30.04C4.68 223.84 0 200.69 0 176.82s4.68-47.02 13.9-68.83c4.43-10.48 9.92-20.59 16.3-30.04a178.4 178.4 0 0 1 21.58-26.16c8-8 16.8-15.26 26.16-21.58 9.45-6.39 19.56-11.87 30.04-16.3C129.8 4.68 152.95 0 176.82 0s47.02 4.68 68.83 13.9c10.48 4.43 20.59 9.92 30.04 16.3a178.4 178.4 0 0 1 26.16 21.58c8 8 15.26 16.8 21.58 26.16 6.39 9.45 11.87 19.56 16.3 30.04 9.22 21.81 13.9 44.96 13.9 68.83s-4.68 47.02-13.9 68.83a176.982 176.982 0 0 1-16.3 30.04 178.4 178.4 0 0 1-21.58 26.16c-8 8-16.8 15.26-26.16 21.58a176.282 176.282 0 0 1-30.04 16.3c-21.81 9.22-44.96 13.9-68.83 13.9zm0-331.67c-85.38 0-154.85 69.47-154.85 154.85s69.47 154.85 154.85 154.85 154.85-69.47 154.85-154.85S262.21 21.97 176.82 21.97zm102.1 234.27c4.63-5.93 8.71-12.22 12.22-18.85L149.16 95.41a85.458 85.458 0 0 0-20.72 10.35l134.79 134.79c-3.14 4.26-6.64 8.33-10.49 12.18-1.28 1.28-2.59 2.52-3.91 3.72-5.61 5.08-11.62 9.45-17.94 13.13-41.09 23.94-94.8 18.32-129.97-16.85a107.7 107.7 0 0 1-11.8-13.99l-17.96 12.68a128.92 128.92 0 0 0 14.23 16.84c12.34 12.34 26.74 21.9 42.79 28.41 15.5 6.28 31.87 9.47 48.66 9.47s33.16-3.19 48.66-9.47c7.5-3.04 14.65-6.75 21.39-11.1 6.18-3.99 12.03-8.52 17.5-13.57a131.25 131.25 0 0 0 14.55-15.77zM97.18 104.82a107.94 107.94 0 0 1 15.9-14.4c6.19-4.57 12.77-8.4 19.6-11.47 39.51-17.76 87.64-10.44 120.04 21.96 2.22 2.22 4.32 4.51 6.31 6.87 1.94 2.31 3.77 4.69 5.49 7.12l17.96-12.68a128.92 128.92 0 0 0-14.23-16.84c-12.34-12.34-26.74-21.9-42.79-28.41-15.5-6.28-31.87-9.47-48.66-9.47s-33.16 3.19-48.66 9.47c-4.08 1.65-8.05 3.5-11.9 5.54-6.63 3.51-12.93 7.59-18.85 12.22a131.25 131.25 0 0 0-15.77 14.55c-5.05 5.47-9.58 11.32-13.57 17.5l146.99 146.99c6.6-3.26 12.85-7.42 18.6-12.47z" fill="url(#b)"/></g></svg>

<svg width="354" height="354" viewBox="0 0 354 354" fill="none" xmlns="http://www.w3.org/2000/svg">
<g clip-path="url(#clip0_4254_5763)">
<path d="M176.82 353.64C152.95 353.64 129.8 348.96 107.99 339.74C97.51 335.31 87.4 329.82 77.95 323.44C68.59 317.12 59.79 309.85 51.79 301.86C43.79 293.86 36.53 285.06 30.21 275.7C23.82 266.25 18.34 256.14 13.91 245.66C4.68 223.84 0 200.69 0 176.82C0 152.95 4.68 129.8 13.9 107.99C18.33 97.51 23.82 87.4 30.2 77.95C36.52 68.59 43.79 59.79 51.78 51.79C59.78 43.79 68.58 36.53 77.94 30.21C87.39 23.82 97.5 18.34 107.98 13.91C129.8 4.68 152.95 0 176.82 0C200.69 0 223.84 4.68 245.65 13.9C256.13 18.33 266.24 23.82 275.69 30.2C285.05 36.52 293.85 43.79 301.85 51.78C309.85 59.78 317.11 68.58 323.43 77.94C329.82 87.39 335.3 97.5 339.73 107.98C348.95 129.79 353.63 152.94 353.63 176.81C353.63 200.68 348.95 223.83 339.73 245.64C335.3 256.12 329.81 266.23 323.43 275.68C317.11 285.04 309.84 293.84 301.85 301.84C293.85 309.84 285.05 317.1 275.69 323.42C266.24 329.81 256.13 335.29 245.65 339.72C223.84 348.94 200.69 353.62 176.82 353.62V353.64ZM176.82 21.97C91.44 21.97 21.97 91.44 21.97 176.82C21.97 262.2 91.44 331.67 176.82 331.67C262.2 331.67 331.67 262.2 331.67 176.82C331.67 91.44 262.21 21.97 176.82 21.97ZM278.92 256.24C283.55 250.31 287.63 244.02 291.14 237.39L149.16 95.41C141.92 97.87 134.94 101.32 128.44 105.76L263.23 240.55C260.09 244.81 256.59 248.88 252.74 252.73C251.46 254.01 250.15 255.25 248.83 256.45C243.22 261.53 237.21 265.9 230.89 269.58C189.8 293.52 136.09 287.9 100.92 252.73C96.53 248.34 92.59 243.65 89.12 238.74L71.16 251.42C75.38 257.39 80.13 263.01 85.39 268.26C97.73 280.6 112.13 290.16 128.18 296.67C143.68 302.95 160.05 306.14 176.84 306.14C193.63 306.14 210 302.95 225.5 296.67C233 293.63 240.15 289.92 246.89 285.57C253.07 281.58 258.92 277.05 264.39 272C265.71 270.78 267.01 269.54 268.29 268.26C272.11 264.44 275.66 260.43 278.94 256.23L278.92 256.24ZM97.18 104.82C98.38 103.49 99.62 102.19 100.9 100.91C104.75 97.06 108.83 93.56 113.08 90.42C119.27 85.85 125.85 82.02 132.68 78.95C172.19 61.19 220.32 68.51 252.72 100.91C254.94 103.13 257.04 105.42 259.03 107.78C260.97 110.09 262.8 112.47 264.52 114.9L282.48 102.22C278.26 96.25 273.51 90.63 268.25 85.38C255.91 73.04 241.51 63.48 225.46 56.97C209.96 50.69 193.59 47.5 176.8 47.5C160.01 47.5 143.64 50.69 128.14 56.97C124.06 58.62 120.09 60.47 116.24 62.51C109.61 66.02 103.31 70.1 97.39 74.73C93.19 78.01 89.18 81.56 85.36 85.38C84.08 86.66 82.84 87.96 81.62 89.28C76.57 94.75 72.04 100.6 68.05 106.78L215.04 253.77C221.64 250.51 227.89 246.35 233.64 241.3L97.18 104.82Z" fill="url(#paint0_linear_4254_5763)"/>
</g>
<defs>
<linearGradient id="paint0_linear_4254_5763" x1="51.7879" y1="51.7879" x2="301.849" y2="301.849" gradientUnits="userSpaceOnUse">
<stop stop-color="#AE8625"/>
<stop offset="0.33" stop-color="#F7EF8A"/>
<stop offset="0.67" stop-color="#D2AC47"/>
<stop offset="1" stop-color="#EDC967"/>
</linearGradient>
<clipPath id="clip0_4254_5763">
<rect width="353.64" height="353.64" fill="white"/>
</clipPath>
</defs>
</svg>
